X: 11180
T: Dunford's Fancy
R: jig
M: 6/8
K: Dmajor
F3 FED|FAA AFA|B3 BAF|AFE EDE|
F3 FED|FAA AFA|BAB dcd|fec d2A|
F3 FED|FAA AFA|B3 BAF|AFE EDE|
F3 FED|FAA AFA|BAB dcd|fec d2e|
f3 fed|faf fed|a3 fed|e2e ede|
f3 fbf|ede fed|gfe dag|fec d2e|
f3 fed|faf fed|a3 fed|e2e ede|
g3 f3|ede fed|gfe dcB|Adc dcB|

